X:1
T:Title
%%score { ( 1 3 ) | ( 2 4 ) }
L:1/8
M:4/4
K:Bb
V:1 treble nm="Grand Piano"
V:3 treble 
V:2 bass 
V:4 bass 
V:1
 z4 z2[Q:1/4=100] [DF]>[DF] | [DB]2 [DB]2 [DB]>[DB] G>B | F6 A>B | c2 c2 c>A B>c | d6 [DF]2 | %5
 [DB]2 [DB]2 [DB]>[DB] G>B | F6 [Ge]>[Ge] | d>d d>B d2 c2 |[M:3/4] [DB]6 |[M:1/4] [DF]>[DB] | %10
[M:4/4] [Fd]2 [Fd]2 [Fd]>[Fd] [Ec]>[Ec] | [DB]6 z2 | A6 z2 | F6 z2 | %14
 [Fd]2 [Fd]2 [_Ad]>[Ad] [Ac]>[AB] | [Ge]6 z2 | %16
[M:35/32] F2 d>dd/ d2- d/[Q:1/4=96](3:2:4c3/2-[Q:1/4=79]c/4c3/4-c/8[Q:1/4=98][Q:1/4=94][Q:1/4=92][Q:1/4=90][Q:1/4=88][Q:1/4=85][Q:1/4=83][Q:1/4=81][Q:1/4=77] | %17
[M:3/4] [DB]6 |] %18
V:2
 z4 z2 [B,,B,]>[B,,B,] | [B,,B,]2 [B,,B,]2 [B,,B,]>[B,,B,] [E,B,E]>[G,B,E] | %2
 [B,D]6 [F,CE]>[F,B,E] | [F,A,E]2 [F,A,E]2 [F,A,E]>[F,CE] [F,B,D]>[F,A,E] | [B,F]6 [B,,B,]2 | %5
 [B,,B,]2 [B,,B,]2 [B,,B,]>[B,,B,] [E,B,E]>[G,B,E] | [B,D]6 [E,B,]>[E,B,] | %7
 [F,B,F]>[F,B,F] [F,B,F]>[F,DF] [F,B,F]2 [F,A,E]2 |[M:3/4] [B,,B,]6 |[M:1/4] [B,,B,]>[B,,B,] | %10
[M:4/4] [B,,B,]2 [B,,B,]2 [B,,B,]>[B,,B,] [F,A,]>[F,A,] | [B,,B,]2 B,,>B,, B,,2 D>D | E6 z2 | %13
 D6 z2 | [B,,B,]2 [B,,B,]2 [B,,B,]>[B,,B,] [B,,B,]>[D,B,] | [E,B,]2 E,>E, E,2 E,>[G,B,E] | %16
[M:35/32] [B,D]2 [F,B,F]>[F,B,F][F,B,F]/ [F,B,F]2- [F,B,F]/(3:2:4[F,A,E]3/2-[F,A,E]/4[F,A,E]3/4-[F,A,E]/8 | %17
[M:3/4] [B,,B,]6 |] %18
V:3
 x8 | x8 | x8 | x8 | x8 | x8 | x8 | x8 |[M:3/4] x6 |[M:1/4] x2 |[M:4/4] x8 | z2 B,>B, B,2 F>B | %12
 z2 C>C C2 G>G | z2 B,>B, B,2 [DF]>[DB] | x8 | z2 B,>B, B,2 [B,GB]>G |[M:35/32] x35/4 | %17
[M:3/4] x6 |] %18
V:4
 x8 | x8 | x8 | x8 | x8 | x8 | x8 | x8 |[M:3/4] x6 |[M:1/4] x2 |[M:4/4] x8 | x8 | %12
 z2 F,>F, F,2 E>E | z2 B,,>B,, B,,2 [B,,B,]>[B,,B,] | x8 | x8 |[M:35/32] x35/4 |[M:3/4] x6 |] %18

